static/markerPink.svg

<svg width="30" height="36" viewBox="0 0 30 36" fill="none" xmlns="http://www.w3.org/2000/svg">
<path d="M25.2 4.31671C22.14 1.25671 18.07 -0.173289 14.06 0.0167109C10.52 0.186711 7.02 1.61671 4.32 4.32671C-1.44 10.0867 -1.44 19.4367 4.32 25.2067L14.76 35.6467L25.2 25.2067C30.96 19.4467 30.96 10.0967 25.2 4.32671V4.31671Z" fill="#FF75C0"/>
<path d="M5.4375 7.6875C5.1875 7.9375 5.20312 8.35938 5.45312 8.5625C5.5625 8.65625 6.03125 8.75 6.48437 8.78125C7.3125 8.82812 7.32812 8.84375 7.54688 9.45312C7.67188 9.79688 8.15625 11.8281 8.64062 13.9844C9.10938 16.125 9.5625 18.0156 9.65625 18.1719C9.73438 18.3281 10.0312 18.5938 10.2969 18.75C10.7656 19.0312 11.1094 19.0625 14.9062 19.0625C19.4219 19.0625 19.8906 18.9844 20.2969 18.1719C20.4219 17.9375 20.8594 16.25 21.2656 14.4375C21.9531 11.3125 21.9844 11.1094 21.7656 10.5781C21.2812 9.45312 21.3594 9.46875 14.7188 9.375L8.79688 9.29688L8.54688 8.59375C8.40625 8.20312 8.23438 7.79688 8.17188 7.6875C8 7.4375 5.6875 7.4375 5.4375 7.6875ZM20.5625 10.8438C20.7031 11.0312 20.6094 11.7031 20.0781 14.0938C19.7188 15.75 19.3281 17.2656 19.2031 17.4531C19 17.8125 18.9688 17.8125 14.9375 17.8125H10.875L10.7188 17.4531C10.6094 17.1875 9.15625 10.9062 9.15625 10.6719C9.15625 10.6406 11.6719 10.625 14.7656 10.625C19.4531 10.625 20.3906 10.6562 20.5625 10.8438Z" fill="white"/>
<path d="M11.0625 19.9531C9.375 20.7813 10.0938 23.4375 12 23.4375C12.5781 23.4375 13.375 22.8594 13.6406 22.2188C13.9688 21.4375 13.6719 20.5469 12.9219 20.0469C12.2969 19.625 11.7813 19.5938 11.0625 19.9531ZM12.4375 21.1719C12.6719 21.4531 12.5938 21.875 12.25 22.0938C11.7031 22.4375 11.0938 21.6719 11.5 21.1719C11.75 20.875 12.1875 20.875 12.4375 21.1719Z" fill="white"/>
<path d="M17.3125 19.9531C15.625 20.7813 16.3438 23.4375 18.25 23.4375C18.8281 23.4375 19.625 22.8594 19.8906 22.2188C20.2188 21.4375 19.9219 20.5469 19.1719 20.0469C18.5469 19.625 18.0313 19.5938 17.3125 19.9531ZM18.6875 21.1719C18.9219 21.4531 18.8438 21.875 18.5 22.0938C17.9531 22.4375 17.3438 21.6719 17.75 21.1719C18 20.875 18.4375 20.875 18.6875 21.1719Z" fill="white"/>
</svg>

<svg xmlns="http://www.w3.org/2000/svg" width="30" height="36" fill="none"><path fill="#FF75C0" d="M25.2 4.317a14.715 14.715 0 0 0-11.14-4.3c-3.54.17-7.04 1.6-9.74 4.31-5.76 5.76-5.76 15.11 0 20.88l10.44 10.44 10.44-10.44c5.76-5.76 5.76-15.11 0-20.88v-.01Z"/><path fill="#fff" d="M5.438 7.688c-.25.25-.235.671.015.875.11.093.578.187 1.031.218.829.047.844.063 1.063.672.125.344.61 2.375 1.094 4.531.468 2.141.921 4.032 1.015 4.188.078.156.375.422.64.578.47.281.813.313 4.61.313 4.516 0 4.985-.079 5.39-.891.126-.235.563-1.922.97-3.735.687-3.124.718-3.328.5-3.859-.485-1.125-.407-1.11-7.047-1.203l-5.922-.078-.25-.703a8.634 8.634 0 0 0-.375-.906c-.172-.25-2.485-.25-2.735 0Zm15.125 3.156c.14.187.046.86-.485 3.25-.36 1.656-.75 3.172-.875 3.36-.203.358-.234.358-4.265.358h-4.063l-.156-.359c-.11-.265-1.563-6.547-1.563-6.781 0-.031 2.516-.047 5.61-.047 4.687 0 5.625.031 5.796.219ZM11.063 19.953c-1.688.828-.97 3.485.937 3.485.578 0 1.375-.579 1.64-1.22.329-.78.032-1.671-.718-2.171-.625-.422-1.14-.453-1.86-.094Zm1.374 1.219c.235.281.157.703-.187.922-.547.343-1.156-.422-.75-.922a.605.605 0 0 1 .938 0ZM17.313 19.953c-1.688.828-.97 3.485.937 3.485.578 0 1.375-.579 1.64-1.22.329-.78.032-1.671-.718-2.171-.625-.422-1.14-.453-1.86-.094Zm1.375 1.219c.234.281.156.703-.188.922-.547.343-1.156-.422-.75-.922a.605.605 0 0 1 .938 0Z"/></svg>
